src/assets/filled/Vuesax.svg

<?xml version="1.0" encoding="UTF-8"?>
<svg width="24" height="24" viewBox="0 0 24 24" xmlns="http://www.w3.org/2000/svg">
 <path d="m12 22.751c-0.25 0-0.49-0.13-0.63-0.34l-9.04-14c-0.22-0.35-0.12-0.81001 0.22-1.04 0.35-0.22 0.81001-0.13 1.04 0.22l8.4 13.02 8.37-13.02c0.2199-0.35 0.69-0.45001 1.04-0.23001s0.45 0.69001 0.23 1.04l-9 14c-0.14 0.22-0.37 0.35-0.63 0.35z"/>
 <path d="m3.92 4h1.82c0.17 0 0.32001 0.08 0.42001 0.22l5.44 8.15c0.2 0.3 0.63 0.3 0.83 0l5.44-8.15c0.09-0.14 0.25-0.22 0.42-0.22h1.82c0.4 0 0.63 0.43999 0.42 0.76999l-8.08 12.58c-0.2 0.31-0.64 0.31-0.84 0l-8.08-12.58c-0.25-0.33-0.00999-0.76999 0.39001-0.76999z"/>
 <path d="m9.42 3.5c-0.45-0.16-0.85001 0.35-0.58001 0.75l2.75 4.13c0.2 0.30001 0.63 0.30001 0.83 0l2.75-4.12c0.27-0.4-0.13-0.91-0.58-0.75l-1.38 0.48999v-1.5c0-0.28-0.22-0.5-0.5-0.5h-1.4c-0.28 0-0.5 0.22-0.5 0.5v1.5l-1.39-0.5z"/>
</svg>

<svg width="24" height="24" viewBox="0 0 24 24"  xmlns="http://www.w3.org/2000/svg">
<path d="M12.0001 22.7506C11.7501 22.7506 11.5101 22.6206 11.3701 22.4106L2.33005 8.41061C2.11005 8.06061 2.21005 7.6006 2.55005 7.3706C2.90005 7.1506 3.36006 7.2406 3.59006 7.5906L11.9901 20.6106L20.3601 7.5906C20.58 7.2406 21.0501 7.14059 21.4001 7.36059C21.7501 7.58059 21.8501 8.0506 21.6301 8.4006L12.6301 22.4006C12.4901 22.6206 12.2601 22.7506 12.0001 22.7506Z" />
<path d="M3.91999 4H5.73997C5.90997 4 6.05998 4.08 6.15998 4.22L11.6 12.37C11.8 12.67 12.23 12.67 12.43 12.37L17.87 4.22C17.96 4.08 18.12 4 18.29 4H20.11C20.51 4 20.74 4.43999 20.53 4.76999L12.45 17.35C12.25 17.66 11.81 17.66 11.61 17.35L3.52998 4.76999C3.27998 4.43999 3.51999 4 3.91999 4Z" />
<path d="M9.42001 3.5C8.97001 3.34 8.57 3.85 8.84 4.25L11.59 8.38C11.79 8.68001 12.22 8.68001 12.42 8.38L15.17 4.26001C15.44 3.86001 15.04 3.35001 14.59 3.51001L13.21 4V2.5C13.21 2.22 12.99 2 12.71 2H11.31C11.03 2 10.81 2.22 10.81 2.5V4L9.42001 3.5Z" />
</svg>
